X:660
T:Tenpenny Bit
R:jig
Z:Transcribed by Dave Marshall
M:6/8
K:G
|: edB G2A | Bcd Bcd | edB G2A | ~B3 AGE |
EDE G2A | BAG Bcd | edB gdB | BAG A3 :|
|: e2f ~g3 | eag fed | e2f ~g3 | efg ~a3 |
bag agf | gfe def | ~g3 edB | BAG A3 :|
